!!!OTL: Casey's Whiskey
!!!ONM: 73.
**kern
*clefG2
!Modal -- Conklin/Pearce 
*k[]
*d:
*M6/8
*MM132
{4cc
8b
=1
4a
8b
4a
8g
=2
(4e
8d)
4c
8d
=3
(4e
8g)
4g
8e
=4
[4.d
4d]}
{8a
=5
4a
8a
4a
8g
=6
4a
8dd
4dd
16ee
16ee
=7
4dd
8cc
4a
8b
=8
[4.cc
4cc]}
{8b
=9
4a
8a
4a
8g
=10
8a
4dd
4dd
8ee
=11
4dd
8cc
4a
8b
=12
[4.cc
4cc]}
{8e
=13
4f
8f
4e
8e
=14
4d
8d
(8e
8f)
8g
=15
4a
8a
4g
8g
=16
[4.c
4c]}
=||
{8a
=17
4a
8b
4a
8g
=18
8e
[4c
4c]
8d
=19
4e
8g
4d
8c
=20
8d
[4d
4d]}
{8e
=21
4a
8a
4a
8g
=22
4a
8dd
4dd
8ee
=23
4dd
8cc
4a
8b
=24
([4.cc
4cc]
8b)}
=25
{4a
8a
4a
8g
=26
8a
[4dd
4dd]
8ee
=27
4dd
8cc
4a
8b
=28
8cc
[4e
4e]}
{8c
=29
4d
8d
(8e
8f)
8g
=30
4a
8dd
4a
8g
=31
4f
8d
4f
8e
=32
4.d}
==
*-
!!!CNT: Folksongs of Maritime Canada
!!!MRD: 1928///-1932///
!!!OCL: Helen Creighton
!!!YOR: Songs and Ballads from Nova Scotia
!!!PPR: J.M. Dent & Sons, Limited
!!!PPP: Toronto, Canada
!!!PDT: 1932///
!!!reprint: Dover Publications, 1992: ISBN 0-486-21703-5
!!!ENC1: Craig Stuart Sapp (music and bibliographic data)                       
!!!ENC2: Marcus Pearce (phrase markings and key designations)                   
!!!ENC3: Darrell Conklin (phrase markings and key designations)   
!!!END: 2002/04/10/
!!!EEV: 2004/06/05
!!!MPN: Mr. Ben Henneberry
!!!PPG: 150
!!!EFL: 74/152
!!!ARE: Canada; Nova Scotia
!!!verses: 5
!!!VTS: 3237661552
